{ "compressionlevel":-1,
 "editorsettings":
    {
     "export":
        {
         "format":"json",
         "target":"elevator.tmj"
        }
    },
 "height":11,
 "infinite":false,
 "layers":[
        {
         "data":[0, 0, 0, 0, 0, 0, 0, 0, 0, 0,
            0, 0, 0, 0, 0, 0, 0, 0, 0, 0,
            0, 0, 0, 0, 0, 0, 0, 0, 0, 0,
            0, 0, 0, 0, 0, 0, 0, 0, 0, 0,
            0, 0, 0, 0, 0, 0, 0, 0, 0, 0,
            0, 0, 53, 54, 55, 56, 57, 58, 0, 0,
            0, 0, 63, 64, 65, 66, 67, 68, 0, 0,
            0, 0, 73, 74, 75, 76, 77, 78, 0, 0,
            0, 0, 0, 0, 85, 86, 0, 0, 0, 0,
            0, 0, 0, 0, 95, 96, 0, 0, 0, 0,
            0, 0, 0, 0, 105, 106, 0, 0, 0, 0],
         "height":11,
         "id":3,
         "name":"Ground",
         "opacity":1,
         "type":"tilelayer",
         "visible":true,
         "width":10,
         "x":0,
         "y":0
        }, 
        {
         "data":[1, 2, 3, 4, 5, 6, 7, 8, 9, 10,
            11, 12, 13, 14, 15, 16, 17, 18, 19, 20,
            21, 22, 23, 24, 25, 26, 27, 28, 29, 30,
            31, 32, 33, 34, 35, 36, 37, 38, 39, 40,
            41, 42, 43, 44, 45, 46, 47, 48, 49, 50,
            51, 52, 0, 0, 0, 0, 0, 0, 59, 60,
            61, 62, 0, 0, 0, 0, 0, 0, 69, 70,
            71, 72, 0, 0, 0, 0, 0, 0, 79, 80,
            81, 82, 83, 84, 0, 0, 87, 88, 89, 90,
            91, 92, 93, 82, 0, 0, 97, 98, 99, 100,
            101, 102, 103, 104, 0, 0, 107, 108, 109, 110],
         "height":11,
         "id":2,
         "name":"Objects",
         "opacity":1,
         "type":"tilelayer",
         "visible":true,
         "width":10,
         "x":0,
         "y":0
        }, 
        {
         "draworder":"topdown",
         "id":5,
         "name":"Interactable",
         "objects":[
                {
                 "height":28,
                 "id":1,
                 "name":"",
                 "opacity":1,
                 "properties":[
                        {
                         "name":"Action",
                         "type":"string",
                         "value":"elevator"
                        }],
                 "rotation":0,
                 "type":"",
                 "visible":true,
                 "width":44.75,
                 "x":76.75,
                 "y":56.25
                }],
         "opacity":1,
         "type":"objectgroup",
         "visible":true,
         "x":0,
         "y":0
        }, 
        {
         "data":[0, 0, 0, 0, 0, 0, 0, 0, 0, 0,
            0, 0, 0, 0, 0, 0, 0, 0, 0, 0,
            0, 0, 0, 0, 0, 0, 0, 0, 0, 0,
            0, 0, 0, 0, 0, 0, 0, 0, 0, 0,
            0, 0, 0, 0, 0, 0, 0, 0, 0, 0,
            0, 0, 0, 0, 0, 0, 0, 0, 0, 0,
            0, 0, 0, 0, 0, 0, 0, 0, 0, 0,
            0, 0, 0, 0, 0, 0, 0, 0, 0, 0,
            0, 0, 0, 0, 83, 84, 0, 0, 0, 0,
            0, 0, 0, 0, 93, 94, 0, 0, 0, 0,
            0, 0, 0, 0, 103, 104, 0, 0, 0, 0],
         "height":11,
         "id":4,
         "name":"ElevatorDoor",
         "opacity":1,
         "type":"tilelayer",
         "visible":false,
         "width":10,
         "x":0,
         "y":0
        }],
 "nextlayerid":6,
 "nextobjectid":2,
 "orientation":"orthogonal",
 "renderorder":"right-down",
 "tiledversion":"1.12.2",
 "tileheight":20,
 "tilesets":[
        {
         "columns":10,
         "firstgid":1,
         "image":"..\/Sprites\/Tilesets\/elevator.png",
         "imageheight":220,
         "imagewidth":200,
         "margin":0,
         "name":"elevator",
         "spacing":0,
         "tilecount":110,
         "tileheight":20,
         "tilewidth":20
        }],
 "tilewidth":20,
 "type":"map",
 "version":"1.10",
 "width":10
}